X: 1
T: Bessarabian hora    [Gm]
S: Stacey Phillips, Fiddle Hell 2013 workshop
Z: 2013 John Chambers <jc:trillian.mit.edu>
M: 3/4
L: 1/8
K: Gm
"A"|:\
"Gm"G,3 B,D<G | B,3 DGB |\
D3 GBd | {d}^c B3 AG |\
^c2 d2 J(3f=ed | "D7"(3d^cB- B2 AG |
[1,3 {^c}.d2 z2 D2 | {^c}.d2 z2 D2 :|\
[2,4 "Gm"G3 BdB | G6 :|\
"B"|:\
"Cm"=B2 c2 c2 | c3 cBA |
"Gm"A2 B2 B2 | B3 BAG |\
"D7" A2 A2 A2 | Jd3 D=E^F |\
"Gm"G3 ABc | dcBA G2 |
"Cm"=B2 c2 c2 | c3 edc |\
"Gm"A2 B2 B2 | B3 JdcB |\
"D7"A2 A2 A2 | d3 E=E^F |
"Gm"G3 BdB | G6 :|\
"C"|:\
"Gm"(G3 B)BA | "D7"(A3 c)cB |\
"Gm"B3 Jddc | "Cm"(c3 e)ed |
"Gm"d4 ^cB | "D7"B4 AG |\
[1,3 "Gm"G3 ed^c | "D7"d4 D2 :|\
[2,4 "Gm"G3 g dB | G6 :|
%%text from Stacey Phillips, Fiddle Hell 2013 workshop
